X:16691
T:The Fiddler's Wife
R:Highland
C:Ed Reavy
M:4/4
L:1/8
Z:Joe Reavy
N:She deserves to be recognized-if only for 
N:the many long patient hours she waited 
N:when tea was held for "just one more tune."
K:D
A|FABc (3dcd AF|GEFD EA,CE|DFAc dfed|cAGE D2 DA|
FABc (3dcd AF|GEFD EA,CE|DFAc dfed|(3cBA (3GFE D2 Dg|
fece dAFA|f2 gf edce|fdec dfed|cAGE D2 Dg|
fece dAFA|f2 gf edce|fdec dfed|(3cBA (3GFE D3||
